polaris-icons/icons/new-icons/ImportStoreMajor.svg

<svg width="20" height="20" viewBox="0 0 20 20" fill="none" xmlns="http://www.w3.org/2000/svg">
<path d="M10.75 2.75C10.75 2.33579 10.4142 2 10 2C9.58579 2 9.25 2.33579 9.25 2.75V5.43934L8.78033 4.96967C8.48744 4.67678 8.01256 4.67678 7.71967 4.96967C7.42678 5.26256 7.42678 5.73744 7.71967 6.03033L9.46967 7.78033C9.61032 7.92098 9.80109 8 10 8C10.1989 8 10.3897 7.92098 10.5303 7.78033L12.2803 6.03033C12.5732 5.73744 12.5732 5.26256 12.2803 4.96967C11.9874 4.67678 11.5126 4.67678 11.2197 4.96967L10.75 5.43934V2.75Z" fill="#4A4A4A"/>
<path fill-rule="evenodd" clip-rule="evenodd" d="M5.89288 4.82156C6.26767 4.99793 6.42851 5.44474 6.25214 5.81953L5.5 7.41783V8.50018C5.5 9.05246 5.94772 9.50018 6.5 9.50018C7.05228 9.50018 7.5 9.05246 7.5 8.50018V8.25018C7.5 7.83596 7.83579 7.5 8.25 7.5C8.66421 7.5 9 7.83579 9 8.25V8.5C9 9.05228 9.44772 9.5 10 9.5C10.5523 9.5 11 9.05228 11 8.5V8.25018C11 7.83596 11.3358 7.5 11.75 7.5C12.1642 7.5 12.5 7.83579 12.5 8.25V8.5C12.5 9.05228 12.9477 9.50018 13.5 9.50018C14.0523 9.50018 14.5 9.05246 14.5 8.50018V7.41783L13.7479 5.81953C13.5715 5.44474 13.7323 4.99793 14.1071 4.82156C14.4819 4.64519 14.9287 4.80604 15.1051 5.18083L15.881 6.8297C15.9594 6.99619 16 7.17794 16 7.36195V8.50018C16 9.06309 15.814 9.58255 15.5 10.0004V15.25C15.5 16.2165 14.7165 17 13.75 17H6.25C5.2835 17 4.5 16.2165 4.5 15.25V10.0004C4.18604 9.58255 4 9.06309 4 8.50018V7.36195C4 7.17794 4.04063 6.99619 4.11898 6.8297L4.89492 5.18083C5.07129 4.80604 5.51809 4.64519 5.89288 4.82156ZM10 11C10.6813 11 11.299 10.7275 11.7499 10.2854C12.2009 10.7276 12.8186 11.0002 13.5 11.0002C13.6712 11.0002 13.8384 10.983 14 10.9502V15.25C14 15.3881 13.8881 15.5 13.75 15.5H11.5V14C11.5 13.4477 11.0523 13 10.5 13H9.5C8.94772 13 8.5 13.4477 8.5 14V15.5H6.25C6.11193 15.5 6 15.3881 6 15.25V10.9502C6.16156 10.983 6.32877 11.0002 6.5 11.0002C7.18141 11.0002 7.79915 10.7276 8.25009 10.2854C8.70102 10.7275 9.31868 11 10 11Z" fill="#4A4A4A"/>
</svg>

<svg viewBox="0 0 20 20" xmlns="http://www.w3.org/2000/svg"><path d="M10.75 2.75a.75.75 0 0 0-1.5 0v2.69l-.47-.47a.75.75 0 0 0-1.06 1.06l1.75 1.75a.75.75 0 0 0 1.06 0l1.75-1.75a.75.75 0 0 0-1.06-1.06l-.47.47v-2.69Z" fill="#5C5F62"/><path fill-rule="evenodd" d="M5.893 4.822a.75.75 0 0 1 .36.998l-.753 1.598v1.082a1 1 0 0 0 2 0v-.25a.75.75 0 0 1 1.5 0v.25a1 1 0 0 0 2 0v-.25a.75.75 0 0 1 1.5 0v.25a1 1 0 0 0 2 0v-1.082l-.752-1.598a.75.75 0 1 1 1.357-.64l.776 1.65c.078.166.119.348.119.532v1.138c0 .563-.186 1.083-.5 1.5v5.25a1.75 1.75 0 0 1-1.75 1.75h-7.5a1.75 1.75 0 0 1-1.75-1.75v-5.25a2.489 2.489 0 0 1-.5-1.5v-1.138c0-.184.04-.366.119-.532l.776-1.65a.75.75 0 0 1 .998-.358Zm4.107 6.178c.681 0 1.299-.273 1.75-.715a2.492 2.492 0 0 0 2.25.665v4.3a.25.25 0 0 1-.25.25h-2.25v-1.5a1 1 0 0 0-1-1h-1a1 1 0 0 0-1 1v1.5h-2.25a.25.25 0 0 1-.25-.25v-4.3a2.511 2.511 0 0 0 2.25-.665c.451.442 1.069.715 1.75.715Z" fill="#5C5F62"/></svg>
